X: 43459
T: Yeah Little Bird, Sing To Me!
R: reel
M: 4/4
K: Eminor
BE (3EEE AE (3EEE|BE (3EEE dAeA|BE (3EEE AE (3EEE|BE (3EEE gAfA:|
|:Bd (3ggg ed (3BBB|Bdeb aged|Bd (3ggg ed (3BBB|Bded BGA2:|
|:DEFD ADBD|DEFD (3AGF (3GFE|DEFD ADBD|(3BAG (3AGF (3GFE D2:|
|:defd adbd|defd (3agf (3gfe|defd adbd|(3bag (3agf (3gfe d2:|
|:Bdgd BGAG|Bdgd BGD2|Bdgd BGAG|(3bag (3agf (3gfe d2:|(3bag (3agf (3gfd e2||

